!!!OTL: EI ALLALIABS SCHAZZAL
!!!ARE: Europa, Mitteleuropa, Deutschland, Boehmen
!!!SCT: Z1227
!!!YEM: Copyright 1995, estate of Helmut Schaffrath.
**kern
*ICvox
*Ivox
*M3/4
*k[b-e-]
*B-:
{8dd
8ff
=1
8cc
8ee-
8ee-
8gg
4b-
=2
8dd
8ff
8a
8cc}
{8cc
8dd
=3
4b-
4dd
8dd
8ff
=4
8cc
8ee-
8ee-
8gg}
{4b-
=5
8dd
8ff
8a
8cc
8cc
8dd
=6
2b-}
{4dd
=7
4dd
8cc
8ee-
8b-
8dd
=8
8dd
8ff
8a
8cc
8cc
8dd
=9
4b-}
{4dd
4dd
=10
4cc
8cc
8ee-
8b-
8dd
=11
8dd
8ff
8a
8cc
8cc
8dd
=12
2b-}
==
!!!AGN: Liebes - Lied
!!!ONB: ESAC (Essen Associative Code) Database: ZUCCAL
!!!AMT: simple triple
!!!AIN: vox
!!!EED: Helmut Schaffrath
!!!EEV: 1.0
*-
